svg/ariadne.svg

<svg viewBox="0 0 20 20" xmlns="http://www.w3.org/2000/svg">
<rect width="100%" height="100%" fill="#CF4942"/>
<path d="M12.8269 12.7456C12.801 12.6911 12.7862 12.6551 12.7677 12.6209C12.4539 12.0568 12.1393 11.4927 11.8284 10.9276C11.7895 10.8565 11.7442 10.8316 11.6637 10.8316C10.5069 10.8344 9.34924 10.8335 8.19249 10.8325C7.97965 10.8325 7.82973 10.9212 7.73072 11.1132C7.2236 12.0928 6.71185 13.0687 6.20381 14.0474C6.11867 14.2118 5.99282 14.2995 5.80404 14.2866C5.64394 14.2755 5.53382 14.1924 5.47459 14.0465C5.42277 13.9191 5.44221 13.7954 5.50606 13.6744C5.86141 12.9949 6.21584 12.3144 6.57027 11.6339C6.73036 11.3265 6.88953 11.0181 7.05147 10.7125C7.28375 10.2739 7.65761 10.0505 8.14622 10.0459C9.1549 10.0357 10.1645 10.0431 11.1741 10.0431H11.3379C10.8521 9.16968 10.3783 8.31656 9.89337 7.44312C9.86191 7.49206 9.8397 7.52345 9.82119 7.55761C9.61853 7.91769 9.41772 8.2787 9.21506 8.63879C9.12992 8.79113 8.99944 8.87146 8.82269 8.85668C8.66074 8.84376 8.54784 8.75604 8.48954 8.6037C8.44697 8.49198 8.45253 8.37842 8.51175 8.27224C8.84305 7.67579 9.17989 7.08212 9.50841 6.48382C9.66665 6.19576 10.1358 6.23915 10.2756 6.50044C10.5347 6.98517 10.8086 7.46159 11.076 7.94262C11.994 9.59347 12.9083 11.2452 13.8337 12.8924C13.9957 13.1805 13.8476 13.5359 13.458 13.5341C12.0199 13.5285 10.5819 13.5332 9.1438 13.5295C9.04293 13.5295 8.99574 13.5599 8.95687 13.6523C8.55895 14.5922 8.15362 15.5293 7.75478 16.4692C7.67242 16.6631 7.53638 16.7508 7.32539 16.7499C5.73186 16.7471 4.13924 16.7471 2.54571 16.7499C2.36063 16.7499 2.2283 16.6825 2.13206 16.5255C1.9988 16.3086 1.86461 16.0925 1.72118 15.882C1.59717 15.6992 1.59532 15.5284 1.70267 15.3354C2.44299 14.0077 3.17683 12.6773 3.91345 11.3477C5.45331 8.564 6.99688 5.77935 8.53859 2.9947C8.62928 2.83128 8.75606 2.74818 8.94947 2.75003C9.60002 2.75465 10.2506 2.75557 10.9011 2.75003C11.0982 2.74818 11.2287 2.82943 11.3222 2.99655C12.7029 5.45343 14.0845 7.91031 15.4661 10.3663C16.4119 12.0476 17.3558 13.7298 18.3034 15.4111C18.3987 15.5801 18.4006 15.7352 18.2988 15.8996C18.1766 16.0971 18.0628 16.3003 17.9471 16.5015C17.8611 16.652 17.7408 16.7296 17.5603 16.7296C16.9727 16.7314 16.385 16.7388 15.7974 16.7499C15.6318 16.7527 15.5068 16.6954 15.4004 16.5717C15.2163 16.3594 15.0238 16.1553 14.8396 15.9439C14.7841 15.8792 14.7258 15.8543 14.6397 15.8552C13.309 15.858 11.9783 15.8571 10.6476 15.8571C10.407 15.8571 10.2654 15.7721 10.1978 15.5884C10.1081 15.3456 10.2756 15.0861 10.5337 15.0677C10.5745 15.0649 10.6152 15.0658 10.6559 15.0658C12.0533 15.0658 13.4506 15.0677 14.848 15.0631C15.034 15.0631 15.1728 15.1203 15.2921 15.2616C15.4735 15.4758 15.6632 15.6826 15.8566 15.8866C15.8937 15.9254 15.9621 15.9559 16.0158 15.9559C16.4406 15.955 16.8663 15.9466 17.291 15.9346C17.3299 15.9337 17.3761 15.9005 17.403 15.8691C17.5187 15.7371 17.5205 15.617 17.4261 15.4499C15.2681 11.6275 13.1175 7.80044 10.9659 3.97432C10.8993 3.85521 10.8299 3.73795 10.766 3.617C10.7364 3.5616 10.7012 3.53852 10.6365 3.53852C10.171 3.54129 9.70459 3.54222 9.23912 3.5376C9.1549 3.5376 9.12344 3.57915 9.09013 3.64008C8.54229 4.63078 7.99353 5.62147 7.44477 6.61216C5.80681 9.56762 4.16978 12.524 2.52998 15.4776C2.48278 15.5616 2.50036 15.6152 2.53738 15.6955C2.63547 15.9116 2.78354 15.9706 3.02229 15.9679C4.34191 15.954 5.66153 15.9596 6.98114 15.9642C7.08664 15.9642 7.12828 15.9254 7.1653 15.8377C7.56507 14.8987 7.96854 13.9606 8.36832 13.0217C8.45068 12.8278 8.58763 12.7419 8.79863 12.7419C10.0886 12.7447 11.3786 12.7437 12.6686 12.7437C12.7149 12.7437 12.7621 12.7437 12.8297 12.7437L12.8269 12.7456Z" fill="white"/>
</svg>

<svg xmlns="http://www.w3.org/2000/svg" viewBox="0 0 20 20">
  <rect width="100%" height="100%" fill="#CF4942"/>
  <path fill="#fff" d="m12.83 12.75-.06-.13-.94-1.7c-.04-.06-.09-.09-.17-.09H8.2a.48.48 0 0 0-.46.28L6.2 14.05c-.08.16-.2.25-.4.24a.36.36 0 0 1-.33-.24.42.42 0 0 1 .04-.38l1.06-2.04.48-.92c.23-.44.6-.66 1.1-.66h3.19l-1.45-2.6-.07.1-.6 1.09c-.09.15-.22.23-.4.22a.37.37 0 0 1-.33-.26.38.38 0 0 1 .02-.33l1-1.79c.16-.28.63-.24.77.02.25.49.53.96.8 1.44l2.75 4.95c.17.29.02.65-.37.64H9.14c-.1 0-.14.03-.18.12l-1.2 2.82c-.09.2-.22.28-.43.28H2.55a.44.44 0 0 1-.42-.22l-.4-.65c-.13-.18-.13-.35-.03-.54l2.21-4L8.54 3c.09-.16.22-.24.4-.24h1.96c.2 0 .33.08.42.25l4.15 7.37 2.83 5.04c.1.17.1.33 0 .49l-.35.6a.41.41 0 0 1-.39.23c-.59 0-1.17 0-1.76.02a.48.48 0 0 1-.4-.18c-.18-.21-.38-.41-.56-.63a.23.23 0 0 0-.2-.08h-4c-.23 0-.37-.09-.44-.27a.39.39 0 0 1 .33-.52h4.32c.18 0 .32.05.44.2l.57.62c.03.04.1.07.16.07.42 0 .85-.01 1.27-.03.04 0 .09-.03.11-.06.12-.13.12-.25.03-.42L10.97 3.97l-.2-.35c-.03-.06-.07-.08-.13-.08h-1.4c-.09 0-.12.04-.15.1L7.44 6.61l-4.91 8.87c-.05.08-.03.14 0 .22.1.21.25.27.5.27 1.31-.02 2.63-.01 3.95 0 .1 0 .15-.04.19-.13l1.2-2.82c.08-.2.22-.28.43-.28h4.03Z"/>
</svg>
